projects/samara2/images/icons/map.svg

<svg width="70" height="70" viewBox="0 0 70 70" fill="none" xmlns="http://www.w3.org/2000/svg">
<g clip-path="url(#clip0_72_71)">
<path d="M55.6446 32.9489C47.7298 32.9489 41.2891 39.3895 41.2891 47.3043C41.2891 50.3264 42.2205 53.2184 44.0068 55.6997L54.0044 69.1785C54.3909 69.6952 54.9997 69.9996 55.6446 69.9996H55.6466C56.2915 69.9996 56.9004 69.6932 57.2869 69.1765L67.689 55.1069C69.2011 52.7837 70.0001 50.086 70.0001 47.3043C70.0001 39.3895 63.5594 32.9489 55.6446 32.9489ZM55.6446 53.4567C52.2521 53.4567 49.4922 50.6969 49.4922 47.3043C49.4922 43.9118 52.2521 41.152 55.6446 41.152C59.0371 41.152 61.7969 43.9118 61.7969 47.3043C61.7969 50.6969 59.0371 53.4567 55.6446 53.4567Z" fill="white"/>
<path d="M3.10625 0.292231C2.47133 -0.0863431 1.68438 -0.0982376 1.03947 0.266255C0.396484 0.63061 0 1.31161 0 2.05057V43.2029C0 43.9238 0.378574 44.5907 0.995313 44.9613L20.6445 56.6686V10.7336L3.10625 0.292231Z" fill="white"/>
<path d="M64.9031 12.5968L45.3906 0.888565V31.9717C48.3261 30.0023 51.8517 28.8473 55.6445 28.8473C59.4374 28.8473 62.963 30.0023 65.8984 31.9717V14.3551C65.8984 13.6342 65.5199 12.9673 64.9031 12.5968Z" fill="white"/>
<path d="M41.2891 0.888565L24.7462 10.7331V56.6684L37.3355 49.197C37.2707 48.5684 37.1876 47.9426 37.1876 47.3042C37.1876 42.9543 38.7627 39.0044 41.2891 35.8463V0.888565Z" fill="white"/>
</g>
<defs>
<clipPath id="clip0_72_71">
<rect width="70" height="70" fill="white"/>
</clipPath>
</defs>
</svg>

<svg width="70" height="70" fill="none" xmlns="http://www.w3.org/2000/svg"><g clip-path="url(#clip0_72_71)" fill="#fff"><path d="M55.645 32.949c-7.915 0-14.356 6.44-14.356 14.355 0 3.022.931 5.914 2.718 8.396l9.997 13.478a2.05 2.05 0 001.64.822h.003c.645 0 1.253-.307 1.64-.823l10.402-14.07A14.267 14.267 0 0070 47.304c0-7.915-6.44-14.355-14.355-14.355zm0 20.508a6.16 6.16 0 01-6.153-6.153 6.16 6.16 0 016.153-6.152 6.16 6.16 0 016.152 6.152 6.16 6.16 0 01-6.152 6.153zM3.106.292A2.05 2.05 0 000 2.05v41.153c0 .72.379 1.388.995 1.758l19.65 11.708V10.734L3.105.292zm61.797 12.305L45.391.889v31.083a18.345 18.345 0 0110.254-3.125c3.792 0 7.318 1.155 10.253 3.125V14.355a2.05 2.05 0 00-.995-1.758zM41.29.889l-16.544 9.844v45.935l12.59-7.471c-.065-.629-.148-1.254-.148-1.893 0-4.35 1.575-8.3 4.101-11.458V.89z"/></g><defs><clipPath id="clip0_72_71"><path fill="#fff" d="M0 0h70v70H0z"/></clipPath></defs></svg>
